;Generated with Cura_SteamEngine 13.12
M109 T0 S220.000000
T0
;Sliced at: Tue 11-03-2014 13:05:28
;Basic settings: Layer height: 0.3 Walls: 1 Fill: 30
;Print time: #P_TIME#
;Filament used: #F_AMNT#m #F_WGHT#g
;Filament cost: #F_COST#
;M190 S70 ;Uncomment to add your own bed temperature line
;M109 S220 ;Uncomment to add your own temperature line
G21        ;metric values
G90        ;absolute positioning
M107       ;start with the fan off
G28 X0 Y0  ;move X/Y to min endstops
G28 Z0     ;move Z to min endstops
G1 X4 Y4 Z15.0 F9000 ;move the platform down 15mm
G92 E0                  ;zero the extruded length
G1 F200 E3              ;extrude 3mm of feed stock
G92 E0                  ;zero the extruded length again
G1 F9000
;Put printing message on LCD screen
M117 Printing...

;Layer count: 33
;LAYER:0
M106 S255
G0 F2940 X118.57 Y88.82 Z0.30
;TYPE:SKIRT
G1 F3000 E0.00000
G1 F1140 X120.22 Y86.86 E0.15976
G1 X122.44 Y85.58 E0.31965
G1 X124.80 Y85.16 E0.46917
G1 X160.45 Y85.16 E2.69234
G1 X160.72 Y84.43 E2.74129
G1 X162.07 Y82.47 E2.88959
G1 X163.85 Y80.89 E3.03785
G1 X165.96 Y79.79 E3.18613
G1 X168.27 Y79.22 E3.33439
G1 X170.65 Y79.22 E3.48275
G1 X172.96 Y79.79 E3.63107
G1 X175.06 Y80.89 E3.77930
G1 X176.84 Y82.47 E3.92761
G1 X178.19 Y84.43 E4.07587
G1 X179.03 Y86.65 E4.22420
G1 X179.31 Y88.90 E4.36543
G1 X179.31 Y109.12 E5.62659
G1 X179.03 Y111.37 E5.76788
G1 X178.19 Y113.60 E5.91615
G1 X176.84 Y115.55 E6.06441
G1 X175.06 Y117.13 E6.21272
G1 X172.96 Y118.23 E6.36095
G1 X171.31 Y118.64 E6.46682
G1 X171.31 Y118.86 E6.48054
G1 X163.31 Y118.86 E6.97945
G1 X163.31 Y123.67 E7.27954
G1 X162.89 Y126.04 E7.42911
G1 X161.61 Y128.25 E7.58885
G1 X159.65 Y129.90 E7.74864
G1 X157.24 Y130.78 E7.90846
G1 X154.68 Y130.78 E8.06836
G1 X152.27 Y129.90 E8.22817
G1 X150.31 Y128.26 E8.38793
G1 X149.02 Y126.04 E8.54774
G1 X148.58 Y123.51 E8.70756
G1 X149.02 Y120.99 E8.86739
G1 X150.31 Y118.77 E9.02715
G1 X150.61 Y118.52 E9.05176
G1 X150.61 Y108.11 E9.70070
G1 X150.38 Y105.90 E9.83916
G1 X149.72 Y103.89 E9.97112
G1 X148.66 Y102.06 E10.10324
G1 X147.27 Y100.50 E10.23338
G1 X145.53 Y99.23 E10.36793
G1 X143.59 Y98.37 E10.49981
G1 X141.55 Y97.94 E10.63026
G1 X138.61 Y97.92 E10.81348
G1 X138.61 Y97.86 E10.81698
G1 X129.96 Y97.86 E11.35666
G1 X129.70 Y98.17 E11.38127
G1 X127.48 Y99.45 E11.54101
G1 X124.96 Y99.89 E11.70085
G1 X122.44 Y99.45 E11.86063
G1 X120.22 Y98.17 E12.02052
G1 X118.57 Y96.20 E12.18028
G1 X117.69 Y93.80 E12.34004
G1 X117.69 Y91.23 E12.49994
G1 X118.57 Y88.82 E12.65970
G1 F3000 E8.15970
G0 F2940 X120.86 Y90.14
;TYPE:WALL-INNER
G1 F3000 E12.65970
G1 F1140 X121.91 Y88.88 E12.76226
G1 X123.34 Y88.06 E12.86494
G1 X125.03 Y87.76 E12.97184
G1 X162.24 Y87.76 E15.29261
G1 X163.04 Y85.65 E15.43378
G1 X164.04 Y84.21 E15.54277
G1 X165.34 Y83.05 E15.65153
G1 X166.89 Y82.24 E15.76046
G1 X168.58 Y81.82 E15.86940
G1 X170.33 Y81.82 E15.97835
G1 X172.03 Y82.24 E16.08722
G1 X173.57 Y83.05 E16.19632
G1 X174.88 Y84.21 E16.30504
G1 X175.87 Y85.65 E16.41399
G1 X176.49 Y87.28 E16.52278
G1 X176.71 Y89.06 E16.63498
G1 X176.71 Y108.96 E17.87594
G1 X176.49 Y110.75 E17.98820
G1 X175.87 Y112.38 E18.09693
G1 X174.88 Y113.82 E18.20588
G1 X173.57 Y114.97 E18.31460
G1 X172.03 Y115.79 E18.42370
G1 X170.36 Y116.20 E18.53092
G1 X168.71 Y116.21 E18.63376
G1 X168.71 Y116.26 E18.63706
G1 X160.71 Y116.26 E19.13596
G1 X160.71 Y123.44 E19.58385
G1 X160.41 Y125.13 E19.69075
G1 X159.59 Y126.56 E19.79351
G1 X158.33 Y127.61 E19.89585
G1 X156.78 Y128.18 E19.99868
G1 X155.14 Y128.18 E20.10120
G1 X153.59 Y127.61 E20.20403
G1 X152.33 Y126.56 E20.30650
G1 X151.51 Y125.14 E20.40902
G1 X151.22 Y123.51 E20.51178
G1 X151.51 Y121.89 E20.61455
G1 X152.33 Y120.47 E20.71706
G1 X153.21 Y119.73 E20.78873
G1 X153.21 Y107.97 E21.52174
G1 X152.93 Y105.36 E21.68558
G1 X152.11 Y102.83 E21.85184
G1 X150.78 Y100.52 E22.01805
G1 X149.02 Y98.56 E22.18201
G1 X146.84 Y96.97 E22.35048
G1 X144.40 Y95.88 E22.51684
G1 X141.83 Y95.34 E22.68070
G1 X141.21 Y95.33 E22.71943
G1 X141.21 Y95.26 E22.72380
G1 X128.74 Y95.26 E23.50115
G1 X128.01 Y96.14 E23.57263
G1 X126.58 Y96.97 E23.67545
G1 X124.96 Y97.25 E23.77804
G1 X123.34 Y96.97 E23.88063
G1 X121.91 Y96.14 E23.98331
G1 X120.86 Y94.88 E24.08587
G1 X120.29 Y93.33 E24.18856
G1 X120.29 Y91.69 E24.29108
G1 X120.86 Y90.14 E24.39377
G0 F2940 X123.68 Y90.29
G1 F1140 X122.39 Y92.51 E24.55378
G1 X123.68 Y94.73 E24.71379
G1 X126.24 Y94.73 E24.87382
G1 X127.53 Y92.51 E25.03383
G1 X126.24 Y90.29 E25.19384
G1 X123.68 Y90.29 E25.35386
G0 F2940 X153.39 Y92.51
G1 F1140 X154.68 Y94.73 E25.51387
G1 X157.24 Y94.73 E25.67389
G1 X158.52 Y92.51 E25.83390
G1 X157.24 Y90.29 E25.99392
G1 X154.68 Y90.29 E26.15394
G1 X153.39 Y92.51 E26.31395
G0 F2940 X154.72 Y90.37
G0 X157.20 Y90.37
G0 X164.65 Y91.16
G1 F1140 X165.93 Y92.93 E26.45053
G1 X167.83 Y94.02 E26.58707
G1 X170.01 Y94.25 E26.72364
G1 X172.09 Y93.57 E26.86023
G1 X173.72 Y92.11 E26.99677
G1 X174.61 Y90.11 E27.13337
G1 X174.61 Y87.92 E27.26988
G1 X173.72 Y85.92 E27.40654
G1 X172.09 Y84.45 E27.54307
G1 X170.01 Y83.78 E27.67966
G1 X167.83 Y84.00 E27.81624
G1 X165.93 Y85.10 E27.95278
G1 X164.65 Y86.87 E28.08936
G1 X164.19 Y89.01 E28.22593
G1 X164.65 Y91.16 E28.36251
G0 F2940 X167.83 Y104.00
G1 F1140 X165.93 Y105.10 E28.49902
G1 X164.65 Y106.87 E28.63560
G1 X164.19 Y109.01 E28.77217
G1 X164.65 Y111.15 E28.90875
G1 X165.93 Y112.93 E29.04532
G1 X167.83 Y114.02 E29.18187
G1 X170.01 Y114.25 E29.31844
G1 X172.09 Y113.57 E29.45503
G1 X173.72 Y112.11 E29.59157
G1 X174.61 Y110.11 E29.72817
G1 X174.61 Y107.92 E29.86468
G1 X173.72 Y105.92 E30.00134
G1 X172.09 Y104.45 E30.13787
G1 X170.01 Y103.78 E30.27442
G1 X167.83 Y104.00 E30.41099
G0 F2940 X165.97 Y105.14
G0 X164.70 Y106.89
G0 X164.25 Y109.01
G0 X157.24 Y121.29
G1 F1140 X154.68 Y121.29 E30.57101
G1 X153.39 Y123.51 E30.73102
G1 X154.68 Y125.73 E30.89104
G1 X157.24 Y125.73 E31.05106
G1 X158.52 Y123.51 E31.21107
G1 X157.24 Y121.29 E31.37108
G0 F2940 X156.95 Y121.79
;TYPE:WALL-OUTER
G1 F1140 X154.96 Y121.79 E31.49506
G1 X153.97 Y123.51 E31.61908
G1 X154.96 Y125.23 E31.74311
G1 X156.95 Y125.23 E31.86709
G1 X157.95 Y123.51 E31.99111
G1 X156.95 Y121.79 E32.11514
G0 F2940 X156.95 Y121.44
G0 X160.86 Y123.46
G0 X161.21 Y123.49
G1 F1140 X160.89 Y125.30 E32.22989
G1 X159.97 Y126.89 E32.34375
G1 X158.58 Y128.06 E32.45719
G1 X156.87 Y128.68 E32.57095
G1 X155.05 Y128.68 E32.68445
G1 X153.33 Y128.06 E32.79820
G1 X151.94 Y126.88 E32.91182
G1 X151.03 Y125.31 E33.02538
G1 X150.71 Y123.51 E33.13903
G1 X151.03 Y121.72 E33.25268
G1 X151.94 Y120.14 E33.36629
G1 X152.71 Y119.49 E33.42892
G1 X152.71 Y108.00 E34.14578
G1 X152.44 Y105.47 E34.30468
G1 X151.65 Y103.03 E34.46436
G1 X150.37 Y100.81 E34.62409
G1 X148.68 Y98.94 E34.78152
G1 X146.59 Y97.40 E34.94343
G1 X144.25 Y96.36 E35.10317
G1 X141.78 Y95.84 E35.26059
G1 X140.71 Y95.83 E35.32713
G1 X140.71 Y95.76 E35.33131
G1 X128.98 Y95.76 E36.06295
G1 X128.33 Y96.53 E36.12544
G1 X126.75 Y97.44 E36.23930
G1 X124.96 Y97.76 E36.35278
G1 X123.17 Y97.44 E36.46625
G1 X121.59 Y96.53 E36.58002
G1 X120.42 Y95.14 E36.69366
G1 X119.79 Y93.42 E36.80729
G1 X119.79 Y91.60 E36.92079
G1 X120.42 Y89.89 E37.03443
G1 X121.59 Y88.50 E37.14806
G1 X123.17 Y87.58 E37.26183
G1 X124.98 Y87.26 E37.37658
G1 X161.90 Y87.26 E39.67882
G1 X162.60 Y85.41 E39.80228
G1 X163.66 Y83.88 E39.91875
G1 X165.06 Y82.64 E40.03533
G1 X166.71 Y81.77 E40.15154
G1 X168.53 Y81.32 E40.26825
G1 X170.39 Y81.32 E40.38456
G1 X172.21 Y81.77 E40.50133
G1 X173.86 Y82.64 E40.61748
G1 X175.26 Y83.88 E40.73411
G1 X176.32 Y85.41 E40.85055
G1 X176.98 Y87.16 E40.96727
G1 X177.21 Y89.03 E41.08444
G1 X177.21 Y109.00 E42.32988
G1 X176.98 Y110.86 E42.44711
G1 X176.32 Y112.61 E42.56378
G1 X175.26 Y114.15 E42.68022
G1 X173.86 Y115.39 E42.79685
G1 X172.21 Y116.26 E42.91300
G1 X170.42 Y116.70 E43.02798
G1 X169.21 Y116.71 E43.10344
G1 X169.21 Y116.76 E43.10693
G1 X161.21 Y116.76 E43.60584
G1 X161.21 Y123.49 E44.02554
G0 F2940 X160.86 Y123.46
G0 X160.82 Y116.37
G0 X167.95 Y113.88
G0 X167.99 Y113.54
G1 F1140 X169.96 Y113.74 E44.14888
G1 X171.84 Y113.13 E44.27221
G1 X173.31 Y111.81 E44.39550
G1 X174.11 Y110.00 E44.51879
G1 X174.11 Y108.02 E44.64208
G1 X173.31 Y106.22 E44.76542
G1 X171.84 Y104.89 E44.88870
G1 X169.96 Y104.28 E45.01202
G1 X167.99 Y104.49 E45.13536
G1 X166.28 Y105.48 E45.25863
G1 X165.11 Y107.08 E45.38195
G1 X164.70 Y109.01 E45.50526
G1 X165.11 Y110.95 E45.62858
G1 X166.28 Y112.55 E45.75190
G1 X167.99 Y113.54 E45.87520
G0 F2940 X167.95 Y113.88
G0 X165.97 Y112.88
G0 X164.70 Y111.13
G0 X164.25 Y109.01
G0 X164.70 Y106.89
G0 X165.97 Y105.14
G0 X167.85 Y104.06
G0 X169.92 Y94.09
G0 X169.96 Y93.74
G1 F1140 X171.84 Y93.13 E45.99854
G1 X173.31 Y91.81 E46.12182
G1 X174.11 Y90.00 E46.24511
G1 X174.11 Y88.03 E46.36840
G1 X173.31 Y86.22 E46.49174
G1 X171.84 Y84.89 E46.61503
G1 X169.96 Y84.28 E46.73836
G1 X167.99 Y84.49 E46.86170
G1 X166.28 Y85.48 E46.98500
G1 X165.11 Y87.08 E47.10832
G1 X164.70 Y89.01 E47.23164
G1 X165.11 Y90.95 E47.35495
G1 X166.28 Y92.55 E47.47827
G1 X167.99 Y93.54 E47.60157
G1 X169.96 Y93.74 E47.72491
G0 F2940 X169.92 Y94.09
G0 X158.25 Y92.69
G0 X157.95 Y92.51
G1 F1140 X156.95 Y90.79 E47.84893
G1 X154.96 Y90.79 E47.97291
G1 X153.97 Y92.51 E48.09694
G1 X154.96 Y94.23 E48.22097
G1 X156.95 Y94.23 E48.34494
G1 X157.95 Y92.51 E48.46897
G0 F2940 X158.25 Y92.69
G0 X157.20 Y94.66
G0 X154.72 Y94.66
G0 X127.25 Y92.69
G0 X126.95 Y92.51
G1 F1140 X125.95 Y90.79 E48.59300
G1 X123.97 Y90.79 E48.71697
G1 X122.97 Y92.51 E48.84100
G1 X123.97 Y94.23 E48.96503
G1 X125.95 Y94.23 E49.08900
G1 X126.95 Y92.51 E49.21303
G0 F2940 X127.65 Y92.65
;TYPE:FILL
G1 F1140 X130.09 Y95.09 E49.42822
G0 F2940 X129.38 Y95.09
G1 F1140 X127.39 Y93.09 E49.60400
G0 F2940 X127.13 Y93.54
G1 F1140 X128.68 Y95.09 E49.74021
G0 F2940 X128.35 Y95.47
G1 F1140 X126.87 Y93.99 E49.87021
G0 F2940 X126.61 Y94.44
G1 F1140 X128.02 Y95.85 E49.99461
G0 F2940 X127.62 Y96.16
G1 F1140 X126.35 Y94.89 E50.10670
G0 F2940 X125.67 Y94.91
G1 F1140 X127.18 Y96.42 E50.23957
G0 F2940 X126.73 Y96.67
G1 F1140 X124.96 Y94.91 E50.39527
G0 F2940 X124.25 Y94.91
G1 F1140 X126.20 Y96.85 E50.56672
G0 F2940 X125.60 Y96.96
G1 F1140 X120.47 Y91.83 E51.01925
G0 F2940 X120.63 Y91.28
G1 F1140 X122.64 Y93.30 E51.19723
G0 F2940 X122.33 Y92.28
G1 F1140 X120.82 Y90.76 E51.33066
G0 F2940 X121.01 Y90.25
G1 F1140 X122.59 Y91.83 E51.47014
G0 F2940 X122.85 Y91.38
G1 F1140 X121.32 Y89.86 E51.60429
G0 F2940 X121.65 Y89.47
G1 F1140 X123.11 Y90.93 E51.73287
G0 F2940 X123.36 Y90.48
G1 F1140 X121.97 Y89.09 E51.85582
G0 F2940 X122.40 Y88.81
G1 F1140 X123.70 Y90.11 E51.97113
G0 F2940 X124.41 Y90.11
G1 F1140 X122.84 Y88.55 E52.10924
G0 F2940 X123.29 Y88.29
G1 F1140 X125.12 Y90.11 E52.27020
G0 F2940 X125.82 Y90.11
G1 F1140 X123.86 Y88.15 E52.44376
G0 F2940 X124.46 Y88.04
G1 F1140 X131.50 Y95.09 E53.06518
G0 F2940 X130.80 Y95.09
G1 F1140 X127.05 Y91.34 E53.39578
G0 F2940 X127.18 Y87.94
G1 F1140 X134.33 Y95.09 E54.02632
G0 F2940 X133.62 Y95.09
G1 F1140 X126.47 Y87.94 E54.65687
G0 F2940 X125.77 Y87.94
G1 F1140 X132.92 Y95.09 E55.28741
G0 F2940 X132.21 Y95.09
G1 F1140 X125.06 Y87.94 E55.91795
G0 F2940 X127.89 Y87.94
G1 F1140 X135.04 Y95.09 E56.54854
G0 F2940 X135.75 Y95.09
G1 F1140 X128.60 Y87.94 E57.17913
G0 F2940 X129.30 Y87.94
G1 F1140 X136.45 Y95.09 E57.80972
G0 F2940 X137.16 Y95.09
G1 F1140 X130.01 Y87.94 E58.44031
G0 F2940 X130.72 Y87.94
G1 F1140 X137.87 Y95.09 E59.07090
G0 F2940 X138.57 Y95.09
G1 F1140 X131.42 Y87.94 E59.70149
G0 F2940 X132.13 Y87.94
G1 F1140 X139.28 Y95.09 E60.33203
G0 F2940 X139.99 Y95.09
G1 F1140 X132.84 Y87.94 E60.96258
G0 F2940 X133.55 Y87.94
G1 F1140 X140.69 Y95.09 E61.59312
G0 F2940 X141.47 Y95.16
G1 F1140 X134.25 Y87.94 E62.22997
G0 F2940 X134.96 Y87.94
G1 F1140 X142.27 Y95.25 E62.87494
G0 F2940 X143.17 Y95.44
G1 F1140 X135.67 Y87.94 E63.53675
G0 F2940 X136.37 Y87.94
G1 F1140 X144.07 Y95.63 E64.21549
G0 F2940 X145.19 Y96.04
G1 F1140 X137.08 Y87.94 E64.93022
G0 F2940 X137.79 Y87.94
G1 F1140 X146.46 Y96.61 E65.69495
G0 F2940 X148.59 Y98.04
G1 F1140 X138.50 Y87.94 E66.58558
G0 F2940 X139.20 Y87.94
G1 F1140 X167.35 Y116.09 E69.06811
G0 F2940 X166.64 Y116.09
G1 F1140 X150.43 Y99.87 E70.49840
G0 F2940 X151.81 Y101.96
G1 F1140 X165.94 Y116.09 E71.74450
G0 F2940 X165.23 Y116.09
G1 F1140 X152.45 Y103.30 E72.87180
G0 F2940 X152.79 Y104.35
G1 F1140 X164.52 Y116.09 E73.90667
G0 F2940 X163.82 Y116.09
G1 F1140 X153.11 Y105.38 E74.85079
G0 F2940 X153.19 Y106.17
G1 F1140 X163.11 Y116.09 E75.72528
G0 F2940 X162.40 Y116.09
G1 F1140 X153.28 Y106.96 E76.53005
G0 F2940 X153.36 Y107.75
G1 F1140 X161.69 Y116.09 E77.26515
G0 F2940 X160.99 Y116.09
G1 F1140 X153.38 Y108.48 E77.93591
G0 F2940 X153.38 Y109.19
G1 F1140 X160.53 Y116.34 E78.56655
G0 F2940 X160.53 Y117.05
G1 F1140 X153.38 Y109.90 E79.19714
G0 F2940 X153.38 Y110.60
G1 F1140 X160.53 Y117.75 E79.82772
G0 F2940 X160.53 Y118.46
G1 F1140 X153.38 Y111.31 E80.45831
G0 F2940 X153.38 Y112.02
G1 F1140 X160.53 Y119.17 E81.08890
G0 F2940 X160.53 Y119.87
G1 F1140 X153.38 Y112.72 E81.71949
G0 F2940 X153.38 Y113.43
G1 F1140 X160.53 Y120.58 E82.35008
G0 F2940 X160.53 Y121.29
G1 F1140 X153.38 Y114.14 E82.98067
G0 F2940 X153.38 Y114.84
G1 F1140 X160.53 Y122.00 E83.61130
G0 F2940 X160.53 Y122.70
G1 F1140 X153.38 Y115.55 E84.24194
G0 F2940 X153.38 Y116.26
G1 F1140 X160.53 Y123.41 E84.87257
G0 F2940 X160.43 Y124.01
G1 F1140 X153.38 Y116.97 E85.49407
G0 F2940 X153.38 Y117.67
G1 F1140 X156.82 Y121.11 E85.79764
G0 F2940 X156.12 Y121.11
G1 F1140 X153.38 Y118.38 E86.03885
G0 F2940 X153.38 Y119.09
G1 F1140 X155.41 Y121.11 E86.21771
G0 F2940 X154.70 Y121.11
G1 F1140 X153.38 Y119.79 E86.33417
G0 F2940 X153.01 Y120.13
G1 F1140 X154.36 Y121.48 E86.45376
G0 F2940 X154.10 Y121.93
G1 F1140 X152.62 Y120.45 E86.58451
G0 F2940 X152.31 Y120.84
G1 F1140 X153.84 Y122.38 E86.71984
G0 F2940 X153.59 Y122.83
G1 F1140 X152.05 Y121.29 E86.85522
G0 F2940 X151.79 Y121.74
G1 F1140 X153.33 Y123.27 E86.99060
G0 F2940 X153.64 Y124.30
G1 F1140 X151.61 Y122.27 E87.16963
G0 F2940 X151.51 Y122.87
G1 F1140 X156.64 Y128.00 E87.62233
G0 F2940 X157.19 Y127.84
G1 F1140 X155.25 Y125.91 E87.79290
G0 F2940 X155.96 Y125.91
G1 F1140 X157.71 Y127.65 E87.94680
G0 F2940 X158.22 Y127.47
G1 F1140 X156.67 Y125.91 E88.08407
G0 F2940 X157.35 Y125.89
G1 F1140 X158.61 Y127.15 E88.19524
G0 F2940 X159.00 Y126.82
G1 F1140 X157.61 Y125.44 E88.31748
G0 F2940 X157.87 Y124.99
G1 F1140 X159.38 Y126.50 E88.45074
G0 F2940 X159.66 Y126.08
G1 F1140 X158.13 Y124.54 E88.58599
G0 F2940 X158.39 Y124.09
G1 F1140 X159.92 Y125.63 E88.72128
G0 F2940 X160.18 Y125.18
G1 F1140 X158.65 Y123.65 E88.85652
G0 F2940 X158.05 Y122.34
G1 F1140 X160.32 Y124.61 E89.05725
G0 F2940 X155.93 Y128.00
G1 F1140 X151.40 Y123.47 E89.45691
G0 F2940 X151.54 Y124.31
G1 F1140 X155.23 Y128.00 E89.78239
G0 F2940 X154.15 Y127.63
G1 F1140 X151.78 Y125.26 E89.99136
G0 F2940 X154.72 Y121.37
G0 X157.20 Y121.37
G0 X160.82 Y116.37
G0 X168.06 Y116.09
G1 F1140 X139.91 Y87.94 E92.47390
G0 F2940 X140.62 Y87.94
G1 F1140 X168.71 Y116.03 E94.95189
G0 F2940 X169.42 Y116.03
G1 F1140 X167.31 Y113.92 E95.13767
G0 F2940 X168.35 Y114.25
G1 F1140 X170.12 Y116.03 E95.29413
G0 F2940 X170.73 Y115.93
G1 F1140 X169.13 Y114.33 E95.43454
G0 F2940 X169.93 Y114.42
G1 F1140 X171.29 Y115.79 E95.55527
G0 F2940 X171.86 Y115.65
G1 F1140 X170.49 Y114.28 E95.67601
G0 F2940 X171.03 Y114.10
G1 F1140 X172.34 Y115.42 E95.79225
G0 F2940 X172.81 Y115.18
G1 F1140 X171.56 Y113.93 E95.90223
G0 F2940 X172.09 Y113.76
G1 F1140 X173.27 Y114.93 E96.00612
G0 F2940 X173.68 Y114.64
G1 F1140 X172.49 Y113.45 E96.11134
G0 F2940 X172.86 Y113.11
G1 F1140 X174.06 Y114.31 E96.21677
