;Generated with Cura_SteamEngine 13.12
M109 T0 S220.000000
T0
;Sliced at: Mon 10-03-2014 09:41:54
;Basic settings: Layer height: 0.3 Walls: 1 Fill: 30
;Print time: #P_TIME#
;Filament used: #F_AMNT#m #F_WGHT#g
;Filament cost: #F_COST#
;M190 S70 ;Uncomment to add your own bed temperature line
;M109 S220 ;Uncomment to add your own temperature line
G21        ;metric values
G90        ;absolute positioning
M107       ;start with the fan off
G28 X0 Y0  ;move X/Y to min endstops
G28 Z0     ;move Z to min endstops
G1 X4 Y4 Z15.0 F9000 ;move the platform down 15mm
G92 E0                  ;zero the extruded length
G1 F200 E3              ;extrude 3mm of feed stock
G92 E0                  ;zero the extruded length again
G1 F9000
;Put printing message on LCD screen
M117 Printing...

;Layer count: 33
;LAYER:0
M106 S255
G0 F2940 X120.16 Y82.47 Z0.30
;TYPE:SKIRT
G1 F3000 E0.00000
G1 F1140 X121.94 Y80.89 E0.14830
G1 X124.04 Y79.79 E0.29654
G1 X126.35 Y79.22 E0.44486
G1 X128.73 Y79.22 E0.59322
G1 X131.04 Y79.79 E0.74147
G1 X133.15 Y80.89 E0.88976
G1 X134.93 Y82.47 E1.03802
G1 X136.28 Y84.43 E1.18632
G1 X136.55 Y85.16 E1.23527
G1 X172.20 Y85.16 E3.45844
G1 X174.56 Y85.58 E3.60795
G1 X176.79 Y86.86 E3.76785
G1 X178.43 Y88.82 E3.92761
G1 X179.31 Y91.23 E4.08737
G1 X179.31 Y93.80 E4.24727
G1 X178.43 Y96.20 E4.40703
G1 X176.79 Y98.17 E4.56679
G1 X174.56 Y99.45 E4.72668
G1 X172.04 Y99.89 E4.88646
G1 X169.52 Y99.45 E5.04630
G1 X167.30 Y98.17 E5.20604
G1 X167.04 Y97.86 E5.23065
G1 X158.39 Y97.86 E5.77033
G1 X158.39 Y97.92 E5.77383
G1 X155.45 Y97.94 E5.95705
G1 X153.41 Y98.37 E6.08750
G1 X151.47 Y99.23 E6.21938
G1 X149.73 Y100.50 E6.35393
G1 X148.34 Y102.06 E6.48407
G1 X147.28 Y103.89 E6.61619
G1 X146.62 Y105.90 E6.74815
G1 X146.39 Y108.11 E6.88660
G1 X146.39 Y118.52 E7.53555
G1 X146.69 Y118.77 E7.56016
G1 X147.98 Y120.99 E7.71992
G1 X148.42 Y123.51 E7.87974
G1 X147.98 Y126.04 E8.03956
G1 X146.69 Y128.26 E8.19938
G1 X144.73 Y129.90 E8.35913
G1 X142.32 Y130.78 E8.51895
G1 X139.76 Y130.78 E8.67885
G1 X137.35 Y129.90 E8.83867
G1 X135.39 Y128.25 E8.99846
G1 X134.11 Y126.04 E9.15819
G1 X133.69 Y123.67 E9.30777
G1 X133.69 Y118.86 E9.60786
G1 X125.69 Y118.86 E10.10676
G1 X125.69 Y118.64 E10.12048
G1 X124.04 Y118.23 E10.22636
G1 X121.94 Y117.13 E10.37459
G1 X120.16 Y115.55 E10.52290
G1 X118.81 Y113.60 E10.67116
G1 X117.97 Y111.37 E10.81943
G1 X117.69 Y109.12 E10.96072
G1 X117.69 Y88.90 E12.22188
G1 X117.97 Y86.65 E12.36311
G1 X118.81 Y84.43 E12.51144
G1 X120.16 Y82.47 E12.65970
G1 F3000 E8.15970
G0 F2940 X122.12 Y84.21
;TYPE:WALL-INNER
G1 F3000 E12.65970
G1 F1140 X123.43 Y83.05 E12.76842
G1 X124.97 Y82.24 E12.87752
G1 X126.67 Y81.82 E12.98639
G1 X128.42 Y81.82 E13.09534
G1 X130.11 Y82.24 E13.20429
G1 X131.66 Y83.05 E13.31321
G1 X132.96 Y84.21 E13.42198
G1 X133.96 Y85.65 E13.53096
G1 X134.76 Y87.76 E13.67214
G1 X171.97 Y87.76 E15.99290
G1 X173.66 Y88.06 E16.09980
G1 X175.09 Y88.88 E16.20248
G1 X176.14 Y90.14 E16.30504
G1 X176.71 Y91.69 E16.40773
G1 X176.71 Y93.33 E16.51025
G1 X176.14 Y94.88 E16.61294
G1 X175.09 Y96.14 E16.71550
G1 X173.66 Y96.97 E16.81818
G1 X172.04 Y97.25 E16.92077
G1 X170.42 Y96.97 E17.02336
G1 X168.99 Y96.14 E17.12618
G1 X168.26 Y95.26 E17.19767
G1 X155.79 Y95.26 E17.97502
G1 X155.79 Y95.33 E17.97938
G1 X155.17 Y95.34 E18.01811
G1 X152.60 Y95.88 E18.18197
G1 X150.16 Y96.97 E18.34833
G1 X147.98 Y98.56 E18.51680
G1 X146.22 Y100.52 E18.68076
G1 X144.89 Y102.83 E18.84698
G1 X144.07 Y105.36 E19.01323
G1 X143.79 Y107.97 E19.17708
G1 X143.79 Y119.73 E19.91009
G1 X144.67 Y120.47 E19.98175
G1 X145.50 Y121.89 E20.08427
G1 X145.78 Y123.51 E20.18703
G1 X145.50 Y125.14 E20.28979
G1 X144.67 Y126.56 E20.39231
G1 X143.41 Y127.61 E20.49479
G1 X141.86 Y128.18 E20.59761
G1 X140.22 Y128.18 E20.70014
G1 X138.67 Y127.61 E20.80296
G1 X137.41 Y126.56 E20.90530
G1 X136.59 Y125.13 E21.00806
G1 X136.29 Y123.44 E21.11496
G1 X136.29 Y116.26 E21.56285
G1 X128.29 Y116.26 E22.06175
G1 X128.29 Y116.21 E22.06506
G1 X126.64 Y116.20 E22.16789
G1 X124.97 Y115.79 E22.27512
G1 X123.43 Y114.97 E22.38421
G1 X122.12 Y113.82 E22.49294
G1 X121.13 Y112.38 E22.60188
G1 X120.51 Y110.75 E22.71062
G1 X120.29 Y108.96 E22.82288
G1 X120.29 Y89.06 E24.06383
G1 X120.51 Y87.28 E24.17603
G1 X121.13 Y85.65 E24.28483
G1 X122.12 Y84.21 E24.39377
G0 F2940 X123.28 Y85.92
G1 F1140 X122.39 Y87.92 E24.53043
G1 X122.39 Y90.11 E24.66694
G1 X123.28 Y92.11 E24.80354
G1 X124.91 Y93.57 E24.94007
G1 X126.99 Y94.25 E25.07667
G1 X129.17 Y94.02 E25.21324
G1 X131.07 Y92.93 E25.34978
G1 X132.35 Y91.16 E25.48636
G1 X132.81 Y89.01 E25.62293
G1 X132.35 Y86.87 E25.75951
G1 X131.07 Y85.10 E25.89609
G1 X129.17 Y84.00 E26.03263
G1 X126.99 Y83.78 E26.16920
G1 X124.91 Y84.45 E26.30579
G1 X123.28 Y85.92 E26.44233
G0 F2940 X124.94 Y84.50
G0 X127.00 Y83.83
G0 X129.15 Y84.06
G0 X131.03 Y85.14
G0 X132.30 Y86.89
G0 X132.75 Y89.01
G0 X138.48 Y92.51
G1 F1140 X139.76 Y94.73 E26.60234
G1 X142.32 Y94.73 E26.76236
G1 X143.61 Y92.51 E26.92237
G1 X142.32 Y90.29 E27.08239
G1 X139.76 Y90.29 E27.24241
G1 X138.48 Y92.51 E27.40242
G0 F2940 X131.07 Y105.10
G1 F1140 X129.17 Y104.00 E27.53893
G1 X126.99 Y103.78 E27.67550
G1 X124.91 Y104.45 E27.81205
G1 X123.28 Y105.92 E27.94859
G1 X122.39 Y107.92 E28.08524
G1 X122.39 Y110.11 E28.22175
G1 X123.28 Y112.11 E28.35835
G1 X124.91 Y113.57 E28.49489
G1 X126.99 Y114.25 E28.63148
G1 X129.17 Y114.02 E28.76805
G1 X131.07 Y112.93 E28.90460
G1 X132.35 Y111.15 E29.04118
G1 X132.81 Y109.01 E29.17775
G1 X132.35 Y106.87 E29.31432
G1 X131.07 Y105.10 E29.45090
G0 F2940 X132.30 Y106.89
G0 X139.76 Y121.29
G1 F1140 X138.48 Y123.51 E29.61091
G1 X139.76 Y125.73 E29.77092
G1 X142.32 Y125.73 E29.93095
G1 X143.61 Y123.51 E30.09096
G1 X142.32 Y121.29 E30.25097
G1 X139.76 Y121.29 E30.41099
G0 F2940 X144.94 Y102.85
G0 X146.27 Y100.55
G0 X148.02 Y98.60
G0 X150.19 Y97.01
G0 X152.62 Y95.93
G0 X155.90 Y95.37
G0 X168.22 Y95.33
G0 X170.76 Y94.73
G1 F1140 X173.32 Y94.73 E30.57101
G1 X174.61 Y92.51 E30.73102
G1 X173.32 Y90.29 E30.89104
G1 X170.76 Y90.29 E31.05106
G1 X169.47 Y92.51 E31.21107
G1 X170.76 Y94.73 E31.37108
G0 F2940 X171.05 Y94.23
;TYPE:WALL-OUTER
G1 F1140 X173.04 Y94.23 E31.49506
G1 X174.03 Y92.51 E31.61908
G1 X173.04 Y90.79 E31.74311
G1 X171.05 Y90.79 E31.86709
G1 X170.05 Y92.51 E31.99111
G1 X171.05 Y94.23 E32.11514
G0 F2940 X171.05 Y94.58
G0 X168.90 Y96.27
G0 X168.67 Y96.53
G1 F1140 X168.02 Y95.76 E32.17764
G1 X156.29 Y95.76 E32.90928
G1 X156.29 Y95.83 E32.91346
G1 X155.22 Y95.84 E32.98000
G1 X152.76 Y96.36 E33.13742
G1 X150.41 Y97.40 E33.29716
G1 X148.32 Y98.94 E33.45906
G1 X146.63 Y100.81 E33.61649
G1 X145.35 Y103.03 E33.77622
G1 X144.56 Y105.47 E33.93591
G1 X144.29 Y108.00 E34.09480
G1 X144.29 Y119.49 E34.81166
G1 X145.06 Y120.14 E34.87430
G1 X145.97 Y121.72 E34.98790
G1 X146.29 Y123.51 E35.10156
G1 X145.97 Y125.31 E35.21521
G1 X145.06 Y126.88 E35.32876
G1 X143.67 Y128.06 E35.44238
G1 X141.95 Y128.68 E35.55614
G1 X140.13 Y128.68 E35.66964
G1 X138.42 Y128.06 E35.78339
G1 X137.03 Y126.89 E35.89684
G1 X136.11 Y125.30 E36.01069
G1 X135.79 Y123.49 E36.12544
G1 X135.79 Y116.76 E36.54514
G1 X127.79 Y116.76 E37.04405
G1 X127.79 Y116.71 E37.04754
G1 X126.58 Y116.70 E37.12300
G1 X124.79 Y116.26 E37.23798
G1 X123.14 Y115.39 E37.35414
G1 X121.74 Y114.15 E37.47077
G1 X120.68 Y112.61 E37.58720
G1 X120.02 Y110.86 E37.70387
G1 X119.79 Y109.00 E37.82110
G1 X119.79 Y89.03 E39.06654
G1 X120.02 Y87.16 E39.18371
G1 X120.68 Y85.41 E39.30044
G1 X121.74 Y83.88 E39.41687
G1 X123.14 Y82.64 E39.53350
G1 X124.79 Y81.77 E39.64966
G1 X126.61 Y81.32 E39.76642
G1 X128.47 Y81.32 E39.88273
G1 X130.29 Y81.77 E39.99944
G1 X131.94 Y82.64 E40.11565
G1 X133.34 Y83.88 E40.23223
G1 X134.40 Y85.41 E40.34870
G1 X135.10 Y87.26 E40.47216
G1 X172.02 Y87.26 E42.77440
G1 X173.83 Y87.58 E42.88915
G1 X175.41 Y88.50 E43.00292
G1 X176.58 Y89.89 E43.11655
G1 X177.21 Y91.60 E43.23019
G1 X177.21 Y93.42 E43.34369
G1 X176.58 Y95.14 E43.45733
G1 X175.41 Y96.53 E43.57096
G1 X173.83 Y97.44 E43.68473
G1 X172.04 Y97.76 E43.79821
G1 X170.25 Y97.44 E43.91168
G1 X168.67 Y96.53 E44.02554
G0 F2940 X168.90 Y96.27
G0 X168.22 Y95.33
G0 X143.33 Y92.69
G0 X143.03 Y92.51
G1 F1140 X142.04 Y90.79 E44.14957
G1 X140.05 Y90.79 E44.27354
G1 X139.05 Y92.51 E44.39757
G1 X140.05 Y94.23 E44.52160
G1 X142.04 Y94.23 E44.64557
G1 X143.03 Y92.51 E44.76960
G0 F2940 X143.33 Y92.69
G0 X142.28 Y94.66
G0 X139.80 Y94.66
G0 X138.57 Y92.51
G0 X132.17 Y91.15
G0 X131.89 Y90.95
G1 F1140 X132.30 Y89.01 E44.89292
G1 X131.89 Y87.08 E45.01623
G1 X130.72 Y85.48 E45.13955
G1 X129.01 Y84.49 E45.26285
G1 X127.05 Y84.28 E45.38619
G1 X125.16 Y84.89 E45.50953
G1 X123.69 Y86.22 E45.63281
G1 X122.89 Y88.03 E45.75615
G1 X122.89 Y90.00 E45.87944
G1 X123.69 Y91.81 E46.00273
G1 X125.16 Y93.13 E46.12602
G1 X127.05 Y93.74 E46.24935
G1 X129.01 Y93.54 E46.37269
G1 X130.72 Y92.55 E46.49599
G1 X131.89 Y90.95 E46.61931
G0 F2940 X132.17 Y91.15
G0 X129.05 Y104.14
G0 X129.01 Y104.49
G1 F1140 X127.05 Y104.28 E46.74265
G1 X125.16 Y104.89 E46.86597
G1 X123.69 Y106.22 E46.98925
G1 X122.89 Y108.02 E47.11259
G1 X122.89 Y110.00 E47.23589
G1 X123.69 Y111.81 E47.35917
G1 X125.16 Y113.13 E47.48246
G1 X127.05 Y113.74 E47.60579
G1 X129.01 Y113.54 E47.72913
G1 X130.72 Y112.55 E47.85243
G1 X131.89 Y110.95 E47.97575
G1 X132.30 Y109.01 E48.09907
G1 X131.89 Y107.08 E48.22238
G1 X130.72 Y105.48 E48.34570
G1 X129.01 Y104.49 E48.46897
G0 F2940 X129.05 Y104.14
G0 X131.03 Y105.14
G0 X132.30 Y106.89
G0 X132.75 Y109.01
G0 X140.05 Y121.44
G0 X140.05 Y121.79
G1 F1140 X139.05 Y123.51 E48.59300
G1 X140.05 Y125.23 E48.71702
G1 X142.04 Y125.23 E48.84100
G1 X143.03 Y123.51 E48.96503
G1 X142.04 Y121.79 E49.08905
G1 X140.05 Y121.79 E49.21303
G0 F2940 X139.47 Y121.44
;TYPE:FILL
G1 F1140 X136.47 Y118.43 E49.47810
G0 F2940 X136.47 Y119.14
G1 F1140 X139.21 Y121.89 E49.72037
G0 F2940 X138.95 Y122.34
G1 F1140 X136.47 Y119.85 E49.93980
G0 F2940 X136.47 Y120.56
G1 F1140 X138.69 Y122.78 E50.13634
G0 F2940 X138.44 Y123.23
G1 F1140 X136.47 Y121.26 E50.31003
G0 F2940 X136.47 Y121.97
G1 F1140 X138.64 Y124.14 E50.50155
G0 F2940 X139.60 Y125.82
G1 F1140 X136.47 Y122.68 E50.77835
G0 F2940 X136.47 Y123.38
G1 F1140 X141.09 Y128.00 E51.18580
G0 F2940 X140.38 Y128.00
G1 F1140 X136.61 Y124.23 E51.51847
G0 F2940 X136.78 Y125.11
G1 F1140 X139.34 Y127.67 E51.74443
G0 F2940 X139.70 Y125.91
G1 F1140 X141.79 Y128.00 E51.92924
G0 F2940 X142.32 Y127.83
G1 F1140 X140.40 Y125.91 E52.09826
G0 F2940 X141.11 Y125.91
G1 F1140 X142.84 Y127.64 E52.25066
G0 F2940 X143.35 Y127.44
G1 F1140 X141.82 Y125.91 E52.38551
G0 F2940 X142.46 Y125.84
G1 F1140 X143.73 Y127.11 E52.49769
G0 F2940 X144.12 Y126.79
G1 F1140 X142.72 Y125.40 E52.62081
G0 F2940 X142.98 Y124.95
G1 F1140 X144.50 Y126.47 E52.75509
G0 F2940 X144.77 Y126.03
G1 F1140 X143.24 Y124.50 E52.89047
G0 F2940 X143.50 Y124.05
G1 F1140 X145.03 Y125.59 E53.02584
G0 F2940 X145.29 Y125.14
G1 F1140 X143.76 Y123.60 E53.16122
G0 F2940 X143.04 Y122.18
G1 F1140 X145.42 Y124.56 E53.37104
G0 F2940 X145.52 Y123.96
G1 F1140 X132.56 Y111.00 E54.51399
G0 F2940 X132.33 Y111.47
G1 F1140 X141.97 Y121.11 E55.36418
G0 F2940 X141.27 Y121.11
G1 F1140 X136.47 Y116.31 E55.78765
G0 F2940 X136.24 Y116.09
G1 F1140 X132.04 Y111.88 E56.15833
G0 F2940 X131.74 Y112.29
G1 F1140 X135.53 Y116.09 E56.49285
G0 F2940 X134.82 Y116.09
G1 F1140 X131.44 Y112.70 E56.79121
G0 F2940 X131.13 Y113.09
G1 F1140 X134.12 Y116.09 E57.05518
G0 F2940 X133.41 Y116.09
G1 F1140 X130.68 Y113.35 E57.29630
G0 F2940 X130.23 Y113.61
G1 F1140 X132.70 Y116.09 E57.51458
G0 F2940 X132.00 Y116.09
G1 F1140 X129.78 Y113.87 E57.71006
G0 F2940 X129.33 Y114.13
G1 F1140 X131.29 Y116.09 E57.88270
G0 F2940 X130.58 Y116.09
G1 F1140 X128.74 Y114.24 E58.04538
G0 F2940 X128.10 Y114.31
G1 F1140 X129.88 Y116.09 E58.20214
G0 F2940 X129.17 Y116.09
G1 F1140 X127.46 Y114.38 E58.35300
G0 F2940 X126.72 Y114.35
G1 F1140 X128.41 Y116.03 E58.50187
G0 F2940 X127.70 Y116.03
G1 F1140 X125.67 Y114.01 E58.68042
G0 F2940 X125.21 Y115.66
G1 F1140 X120.94 Y111.40 E59.05683
G0 F2940 X120.64 Y110.39
G1 F1140 X126.15 Y115.90 E59.54269
G0 F2940 X126.99 Y116.03
G1 F1140 X123.50 Y112.54 E59.84970
G0 F2940 X123.11 Y112.15
G1 F1140 X120.54 Y109.58 E60.07592
G0 F2940 X120.47 Y108.80
G1 F1140 X122.54 Y110.87 E60.25888
G0 F2940 X122.21 Y109.84
G1 F1140 X120.47 Y108.09 E60.41308
G0 F2940 X120.47 Y107.38
G1 F1140 X122.21 Y109.13 E60.56729
G0 F2940 X122.21 Y108.43
G1 F1140 X120.47 Y106.68 E60.72150
G0 F2940 X120.47 Y105.97
G1 F1140 X122.27 Y107.77 E60.88016
G0 F2940 X122.48 Y107.28
G1 F1140 X120.47 Y105.26 E61.05800
G0 F2940 X120.47 Y104.56
G1 F1140 X122.70 Y106.79 E61.25503
G0 F2940 X122.92 Y106.30
G1 F1140 X120.47 Y103.85 E61.47128
G0 F2940 X120.47 Y103.14
G1 F1140 X123.14 Y105.81 E61.70676
G0 F2940 X123.51 Y105.48
G1 F1140 X120.47 Y102.44 E61.97496
G0 F2940 X120.47 Y101.73
G1 F1140 X123.88 Y105.14 E62.27601
G0 F2940 X124.25 Y104.81
G1 F1140 X120.47 Y101.02 E62.60983
G0 F2940 X120.47 Y100.31
G1 F1140 X124.62 Y104.47 E62.97654
G0 F2940 X125.07 Y104.21
G1 F1140 X120.47 Y99.61 E63.38285
G0 F2940 X120.47 Y98.90
G1 F1140 X125.61 Y104.04 E63.83621
G0 F2940 X126.14 Y103.87
G1 F1140 X120.47 Y98.19 E64.33663
G0 F2940 X120.47 Y97.48
G1 F1140 X126.67 Y103.69 E64.88405
G0 F2940 X127.32 Y103.63
G1 F1140 X120.47 Y96.78 E65.48871
G0 F2940 X120.47 Y96.07
G1 F1140 X128.11 Y103.72 E66.16304
G0 F2940 X128.90 Y103.80
G1 F1140 X120.47 Y95.36 E66.90709
G0 F2940 X120.47 Y94.66
G1 F1140 X130.21 Y104.40 E67.76672
G0 F2940 X132.27 Y106.46
G1 F1140 X143.62 Y117.81 E68.76724
G0 F2940 X143.62 Y118.51
G1 F1140 X132.68 Y107.58 E69.73160
G0 F2940 X132.87 Y108.48
G1 F1140 X143.62 Y119.22 E70.67898
G0 F2940 X143.62 Y117.10
G1 F1140 X120.47 Y93.95 E72.72072
G0 F2940 X120.47 Y93.24
G1 F1140 X143.62 Y116.39 E74.76246
G0 F2940 X143.62 Y115.69
G1 F1140 X120.47 Y92.53 E76.80421
G0 F2940 X120.47 Y91.83
G1 F1140 X143.62 Y114.98 E78.84595
G0 F2940 X143.62 Y114.27
G1 F1140 X120.47 Y91.12 E80.88764
G0 F2940 X120.47 Y90.41
G1 F1140 X143.62 Y113.56 E82.92934
G0 F2940 X143.62 Y112.86
G1 F1140 X120.47 Y89.71 E84.97104
G0 F2940 X120.47 Y89.01
G1 F1140 X122.70 Y91.23 E85.16749
G0 F2940 X122.22 Y90.04
G1 F1140 X120.55 Y88.38 E85.31433
G0 F2940 X120.63 Y87.75
G1 F1140 X122.22 Y89.33 E85.45447
G0 F2940 X122.22 Y88.63
G1 F1140 X120.74 Y87.15 E85.58443
G0 F2940 X120.94 Y86.64
G1 F1140 X122.22 Y87.92 E85.69723
G0 F2940 X122.42 Y87.42
G1 F1140 X121.13 Y86.13 E85.81109
G0 F2940 X121.35 Y85.64
G1 F1140 X122.64 Y86.93 E85.92512
G0 F2940 X122.86 Y86.44
G1 F1140 X121.63 Y85.22 E86.03290
G0 F2940 X121.92 Y84.80
G1 F1140 X123.07 Y85.95 E86.13450
G0 F2940 X123.40 Y85.57
G1 F1140 X122.21 Y84.38 E86.23949
G0 F2940 X122.58 Y84.04
G1 F1140 X123.77 Y85.24 E86.34524
G0 F2940 X124.15 Y84.90
G1 F1140 X122.95 Y83.71 E86.45067
G0 F2940 X123.33 Y83.37
G1 F1140 X124.52 Y84.57 E86.55589
G0 F2940 X124.92 Y84.26
G1 F1140 X123.74 Y83.08 E86.65991
G0 F2940 X124.21 Y82.84
G1 F1140 X125.46 Y84.09 E86.77016
G0 F2940 X125.99 Y83.92
G1 F1140 X124.67 Y82.59 E86.88657
G0 F2940 X125.15 Y82.37
G1 F1140 X126.52 Y83.74 E87.00722
G0 F2940 X127.10 Y83.61
G1 F1140 X125.72 Y82.23 E87.12840
G0 F2940 X126.29 Y82.09
G1 F1140 X127.89 Y83.69 E87.26934
G0 F2940 X128.68 Y83.78
G1 F1140 X126.90 Y82.00 E87.42628
G0 F2940 X127.60 Y82.00
G1 F1140 X129.74 Y84.13 E87.61453
G0 F2940 X130.23 Y82.50
G1 F1140 X134.01 Y86.28 E87.94803
G0 F2940 X134.44 Y87.42
G1 F1140 X129.22 Y82.20 E88.40801
G0 F2940 X128.31 Y82.00
G1 F1140 X138.48 Y92.16 E89.30451
G0 F2940 X138.74 Y91.71
G1 F1140 X134.96 Y87.94 E89.63748
G0 F2940 X135.67 Y87.94
G1 F1140 X139.00 Y91.27 E89.93099
G0 F2940 X139.25 Y90.82
